X:28
T:Saint Patrick's Day
Z: id:dc-setdance-29
M:6/8
L:1/8
K:G Major
D|GAG GBd|gfe dBG|AGA BGD|EFE E2D|!
GAG GBd|gfe dBG|AGA BGD|E2F G2:|!
B|def gag|fed edB|def gag|fed e2B|def gag|fed efg|]!

